src/pos-icons/decimal-comma-increase.svg

<svg height="24" viewBox="0 0 24 24" width="24" xmlns="http://www.w3.org/2000/svg"><path d="m9 5a3 3 0 0 0 -3 3v3a3 3 0 0 0 6 0v-3a3 3 0 0 0 -3-3m1 6a1 1 0 0 1 -2 0v-3a1 1 0 0 1 2 0m6 6a3 3 0 0 0 3-3v-3a3 3 0 0 0 -6 0v3a3 3 0 0 0 3 3m-1-6a1 1 0 0 1 2 0v3a1 1 0 0 1 -2 0m4 9v-2h-6v-2h6v-2l3 3m-17-4v3h-1l-1-3a1 1 0 0 1 2 0z"/></svg>

<?xml version="1.0" encoding="UTF-8"?><!DOCTYPE svg PUBLIC "-//W3C//DTD SVG 1.1//EN" "http://www.w3.org/Graphics/SVG/1.1/DTD/svg11.dtd"><svg xmlns="http://www.w3.org/2000/svg" xmlns:xlink="http://www.w3.org/1999/xlink" version="1.1" id="mdi-decimal-comma-increase" width="24" height="24" viewBox="0 0 24 24"><path d="M9 5A3 3 0 0 0 6 8V11A3 3 0 0 0 12 11V8A3 3 0 0 0 9 5M10 11A1 1 0 0 1 8 11V8A1 1 0 0 1 10 8M16 14A3 3 0 0 0 19 11V8A3 3 0 0 0 13 8V11A3 3 0 0 0 16 14M15 8A1 1 0 0 1 17 8V11A1 1 0 0 1 15 11M19 20V18H13V16H19V14L22 17M5 13V16H4L3 13A1 1 0 0 1 5 13Z" /></svg>
